; generated by PrusaSlicer 2.5.0+linux-x64-GTK3 on 2023-01-25 at 18:55:05 UTC


;
;

;
;
; 

; external perimeters extrusion width = 0.45mm
; perimeters extrusion width = 0.45mm
; infill extrusion width = 0.45mm
; solid infill extrusion width = 0.45mm
; top infill extrusion width = 0.40mm
; first layer extrusion width = 0.42mm

M73 P0 R79
M201 X2500 Y2500 Z400 E5000 ; sets maximum accelerations, mm/sec^2
M203 X180 Y180 Z12 E80 ; sets maximum feedrates, mm / sec
M204 P1250 R1250 T2500 ; sets acceleration (P, T) and retract acceleration (R), mm/sec^2
M205 X8.00 Y8.00 Z2.00 E10.00 ; sets the jerk limits, mm/sec
M205 S0 T0 ; sets the minimum extruding and travel feed rate, mm/sec
M107
;TYPE:Custom
M862.3 P "MINI" ; printer model check
G90 ; use absolute coordinates
M83 ; extruder relative mode
M104 S170 ; set extruder temp for bed leveling
M140 S60 ; set bed temp
M109 R170 ; wait for bed leveling temp
M190 S60 ; wait for bed temp
M204 T1250 ; set travel acceleration
G28 ; home all without mesh bed level
G29 ; mesh bed leveling 
M204 T2500 ; restore travel acceleration
M104 S215 ; set extruder temp
G92 E0
G1 Y-2 X179 F2400
G1 Z3 F720
M109 S215 ; wait for extruder temp

; intro line
G1 X170 F1000
G1 Z0.2 F720
G1 X110 E8 F900
G1 X40 E10 F700
G92 E0

M221 S95 ; set flow
G21 ; set units to millimeters
G90 ; use absolute coordinates
M83 ; use relative distances for extrusion
M900 K0.2 ; Filament gcode LA 1.5
; ; Filament gcode LA 1.0
M107
;LAYER_CHANGE
;Z:0.2
;HEIGHT:0.2
;BEFORE_LAYER_CHANGE
G92 E0.0
;0.2


G1 E-3.2 F4200
G1 Z.2 F720
;AFTER_LAYER_CHANGE
;0.2
G1 Z.4
G1 X42.2 Y42.639 F9000
G1 Z.2 F720
G1 E3.2 F2400
M204 P800
;TYPE:Skirt/Brim
;WIDTH:0.42
G1 F1200
G1 X43.053 Y41.882 E.03575
G1 X43.59 Y41.572 E.01946
G1 X44.672 Y41.211 E.03575
G1 X45.5 Y41.123 E.02611
G1 X134.81 Y41.143 E2.80026
G1 X135.927 Y41.372 E.03575
G1 X136.41 Y41.572 E.01637
G1 X137.361 Y42.2 E.03575
G1 X137.8 Y42.639 E.01946
G1 X138.428 Y43.59 E.03575
G1 X138.628 Y44.073 E.01637
G1 X138.789 Y44.672 E.01946
G1 X138.877 Y45.5 E.02611
G1 X138.877 Y134.5 E2.79053
G1 X138.789 Y135.328 E.02611
G1 X138.628 Y135.927 E.01946
G1 X138.118 Y136.947 E.03575
G1 X137.8 Y137.361 E.01637
G1 X137.294 Y137.852 E.0221
G1 X136.41 Y138.428 E.0331
G1 X135.328 Y138.789 E.03575
G1 X134.5 Y138.877 E.02611
G1 X45.5 Y138.877 E2.79053
G1 X44.672 Y138.789 E.02611
G1 X44.073 Y138.628 E.01946
G1 X43.59 Y138.428 E.01637
G1 X42.639 Y137.8 E.03575
G1 X42.2 Y137.361 E.01946
G1 X41.572 Y136.41 E.03575
G1 X41.211 Y135.328 E.03575
G1 X41.123 Y134.5 E.02611
G1 X41.123 Y45.5 E2.79053
G1 X41.211 Y44.672 E.02611
G1 X41.372 Y44.073 E.01946
G1 X41.882 Y43.053 E.03575
G1 X42.163 Y42.686 E.01449
M204 P1000
; printing object base.stl id:0 copy 0
G1 E-2.24 F4200
;WIPE_START
G1 F7200
G1 X43.053 Y41.882 E-.66454
G1 X43.44 Y41.659 E-.24746
;WIPE_END
G1 E-.048 F4200
G1 Z.4 F720
G1 X79.635 Y135.713 F9000
G1 Z.2 F720
G1 E3.2 F2400
M204 P800
;TYPE:Perimeter
;WIDTH:0.419999
G1 F1200
G1 X45.64 Y135.713 E1.06589
G1 X45.188 Y135.665 E.01426
G1 X44.897 Y135.545 E.00987
G1 X44.647 Y135.353 E.00987
G1 X44.455 Y135.103 E.00987
G1 X44.335 Y134.812 E.00987
G1 X44.287 Y134.448 E.0115
G1 X44.287 Y45.552 E2.78729
G1 X44.335 Y45.188 E.0115
M73 P0 R78
G1 X44.455 Y44.897 E.00987
G1 X44.647 Y44.647 E.00987
G1 X44.897 Y44.455 E.00987
G1 X45.188 Y44.335 E.00987
G1 X45.552 Y44.287 E.0115
G1 X134.362 Y44.289 E2.78457
G1 X134.812 Y44.335 E.0142
G1 X135.103 Y44.455 E.00987
G1 X135.353 Y44.647 E.00987
G1 X135.545 Y44.897 E.00987
G1 X135.665 Y45.188 E.00987
G1 X135.713 Y45.552 E.0115
G1 X135.713 Y134.36 E2.78451
G1 X135.665 Y134.812 E.01427
M73 P1 R78
G1 X135.545 Y135.103 E.00987
G1 X135.353 Y135.353 E.00987
G1 X135.103 Y135.545 E.00987
G1 X134.812 Y135.665 E.00987
G1 X134.448 Y135.713 E.0115
G1 X79.695 Y135.713 E1.71674
M204 P1000
G1 E-2.24 F4200
;WIPE_START
G1 F7200
G1 X78.05 Y135.713 E-.912
;WIPE_END
G1 E-.048 F4200
G1 Z.4 F720
G1 X43.91 Y60.536 F9000
G1 Z.2 F720
G1 E3.2 F2400
M204 P800
;TYPE:External perimeter
G1 F1200
G1 X43.91 Y45.527 E.47061
G1 X43.968 Y45.089 E.01383
G1 X44.126 Y44.707 E.01299
G1 X44.378 Y44.378 E.01299
G1 X44.707 Y44.126 E.01299
G1 X45.089 Y43.968 E.01299
G1 X45.527 Y43.91 E.01383
G1 X134.374 Y43.912 E2.78572
G1 X134.911 Y43.968 E.01693
G1 X135.293 Y44.126 E.01299
G1 X135.622 Y44.378 E.01299
G1 X135.874 Y44.707 E.01299
G1 X136.032 Y45.089 E.01299
G1 X136.09 Y45.527 E.01383
G1 X136.09 Y134.36 E2.78529
G1 X136.032 Y134.911 E.01737
G1 X135.874 Y135.293 E.01299
G1 X135.622 Y135.622 E.01299
G1 X135.293 Y135.874 E.01299
G1 X134.911 Y136.032 E.01299
G1 X134.473 Y136.09 E.01384
G1 X45.64 Y136.09 E2.78529
G1 X45.089 Y136.032 E.01737
G1 X44.707 Y135.874 E.01299
G1 X44.378 Y135.622 E.01299
G1 X44.126 Y135.293 E.01299
G1 X43.968 Y134.911 E.01299
G1 X43.91 Y134.473 E.01383
G1 X43.91 Y60.596 E2.31636
M204 P1000
G1 X44.256 Y60.336 F9000
G1 E-2.24 F4200
;WIPE_START
G1 F7200
G1 X43.91 Y58.95 E-.912
;WIPE_END
G1 E-.048 F4200
G1 Z.4 F720
G1 X68.267 Y63.382 F9000
G1 Z.2 F720
G1 E3.2 F2400
M204 P800
;TYPE:Perimeter
G1 F1200
G1 X68.198 Y63.525 E.00496
G1 X67.645 Y64.208 E.02756
G1 X66.949 Y64.745 E.02756
G1 X66.148 Y65.107 E.02756
G1 X65.286 Y65.275 E.02756
G1 X64.407 Y65.239 E.02756
G1 X63.561 Y65.001 E.02756
G1 X62.793 Y64.575 E.02756
G1 X62.143 Y63.983 E.02756
G1 X61.647 Y63.257 E.02756
G1 X61.332 Y62.437 E.02756
G1 X61.215 Y61.566 E.02756
G1 X61.302 Y60.691 E.02756
G1 X61.588 Y59.86 E.02756
G1 X61.986 Y59.228 E.0234
G1 X62.143 Y59.017 E.00826
G1 X62.687 Y58.503 E.02346
G1 X63.441 Y58.051 E.02756
G1 X64.278 Y57.784 E.02756
G1 X65.155 Y57.718 E.02756
G1 X66.023 Y57.855 E.02756
G1 X66.836 Y58.189 E.02756
G1 X67.55 Y58.702 E.02756
G1 X68.126 Y59.365 E.02756
G1 X68.534 Y60.144 E.02756
G1 X68.752 Y60.995 E.02756
G1 X68.767 Y61.874 E.02756
G1 X68.579 Y62.733 E.02756
G1 X68.293 Y63.328 E.02072
M204 P1000
G1 E-2.24 F4200
;WIPE_START
G1 F7200
G1 X68.198 Y63.525 E-.12084
G1 X67.645 Y64.208 E-.48706
G1 X67.211 Y64.543 E-.30409
;WIPE_END
G1 E-.048 F4200
G1 Z.4 F720
G1 X65.968 Y58.232 F9000
G1 Z.2 F720
G1 E3.2 F2400
M204 P800
;TYPE:External perimeter
G1 F1200
G1 X66.686 Y58.536 E.02444
G1 X67.324 Y59.004 E.02483
G1 X67.837 Y59.608 E.02483
G1 X68.197 Y60.313 E.02483
G1 X68.385 Y61.082 E.02483
G1 X68.39 Y61.874 E.02483
G1 X68.212 Y62.646 E.02483
G1 X67.861 Y63.356 E.02483
G1 X67.356 Y63.965 E.02483
G1 X66.724 Y64.442 E.02483
G1 X65.999 Y64.761 E.02483
G1 X65.22 Y64.903 E.02483
G1 X64.429 Y64.862 E.02483
G1 X63.669 Y64.64 E.02483
G1 X62.981 Y64.248 E.02483
G1 X62.402 Y63.709 E.02483
G1 X61.962 Y63.05 E.02483
G1 X61.687 Y62.308 E.02483
G1 X61.59 Y61.522 E.02483
G1 X61.677 Y60.735 E.02483
G1 X61.943 Y59.989 E.02483
G1 X62.301 Y59.436 E.02067
G1 X62.402 Y59.291 E.00552
G1 X62.946 Y58.778 E.02346
G1 X63.629 Y58.377 E.02483
G1 X64.386 Y58.145 E.02483
G1 X65.176 Y58.094 E.02483
G1 X65.91 Y58.219 E.02333
M204 P1000
G1 X66.258 Y57.955 F9000
G1 E-2.24 F4200
;WIPE_START
G1 F7200
G1 X66.686 Y58.536 E-.46455
G1 X67.324 Y59.004 E-.4388
G1 X67.334 Y59.016 E-.00865
;WIPE_END
G1 E-.048 F4200
G1 Z.4 F720
G1 X114.172 Y65.173 F9000
G1 Z.2 F720
G1 E3.2 F2400
M204 P800
;TYPE:Perimeter
G1 F1200
G1 X113.561 Y65.001 E.01988
G1 X112.793 Y64.575 E.02756
G1 X112.143 Y63.983 E.02756
G1 X111.647 Y63.257 E.02756
G1 X111.332 Y62.437 E.02756
G1 X111.215 Y61.566 E.02756
G1 X111.302 Y60.691 E.02756
G1 X111.588 Y59.86 E.02756
G1 X112.059 Y59.118 E.02756
G1 X112.687 Y58.503 E.02756
G1 X113.441 Y58.051 E.02756
G1 X114.278 Y57.784 E.02756
G1 X115.155 Y57.718 E.02756
G1 X116.023 Y57.855 E.02756
G1 X116.836 Y58.189 E.02756
G1 X117.55 Y58.702 E.02756
G1 X118.126 Y59.365 E.02756
G1 X118.534 Y60.144 E.02756
G1 X118.752 Y60.995 E.02756
G1 X118.767 Y61.874 E.02756
G1 X118.579 Y62.733 E.02756
G1 X118.198 Y63.525 E.02756
G1 X117.645 Y64.208 E.02756
G1 X116.949 Y64.745 E.02756
G1 X116.148 Y65.107 E.02756
G1 X115.286 Y65.275 E.02756
G1 X114.407 Y65.239 E.02756
G1 X114.23 Y65.189 E.00579
M204 P1000
G1 E-2.24 F4200
;WIPE_START
G1 F7200
G1 X113.561 Y65.001 E-.38469
G1 X112.793 Y64.575 E-.48712
G1 X112.739 Y64.526 E-.04019
;WIPE_END
G1 E-.048 F4200
G1 Z.4 F720
G1 X118.387 Y61.395 F9000
G1 Z.2 F720
G1 E3.2 F2400
M204 P800
;TYPE:External perimeter
G1 F1200
G1 X118.39 Y61.874 E.01503
G1 X118.212 Y62.646 E.02483
G1 X117.861 Y63.356 E.02483
G1 X117.356 Y63.965 E.02483
G1 X116.724 Y64.442 E.02483
G1 X115.999 Y64.761 E.02483
G1 X115.22 Y64.903 E.02483
G1 X114.429 Y64.862 E.02483
G1 X113.669 Y64.64 E.02482
G1 X112.981 Y64.248 E.02483
G1 X112.402 Y63.709 E.02483
G1 X111.962 Y63.05 E.02483
G1 X111.687 Y62.308 E.02483
G1 X111.59 Y61.522 E.02483
G1 X111.677 Y60.735 E.02483
G1 X111.943 Y59.989 E.02483
G1 X112.374 Y59.325 E.02483
G1 X112.946 Y58.778 E.02483
G1 X113.629 Y58.377 E.02483
G1 X114.386 Y58.145 E.02483
G1 X115.176 Y58.094 E.02483
G1 X115.957 Y58.227 E.02483
G1 X116.686 Y58.536 E.02483
G1 X117.324 Y59.004 E.02483
G1 X117.837 Y59.608 E.02483
G1 X118.197 Y60.313 E.02483
G1 X118.385 Y61.082 E.02483
G1 X118.386 Y61.335 E.00791
M204 P1000
G1 X118.745 Y61.573 F9000
G1 E-2.24 F4200
;WIPE_START
G1 F7200
G1 X118.39 Y61.874 E-.29894
G1 X118.212 Y62.646 E-.4388
G1 X118.073 Y62.928 E-.17426
;WIPE_END
G1 E-.048 F4200
G1 Z.4 F720
G1 X112.626 Y115.563 F9000
G1 Z.2 F720
G1 E3.2 F2400
M204 P800
;TYPE:Perimeter
G1 F1200
G1 X112.687 Y115.503 E.00269
G1 X113.441 Y115.051 E.02756
G1 X114.278 Y114.784 E.02755
G1 X115.155 Y114.718 E.02756
G1 X116.023 Y114.855 E.02756
G1 X116.836 Y115.189 E.02756
G1 X117.55 Y115.702 E.02756
G1 X118.126 Y116.365 E.02756
G1 X118.534 Y117.144 E.02756
G1 X118.752 Y117.995 E.02756
G1 X118.767 Y118.874 E.02756
G1 X118.579 Y119.733 E.02756
G1 X118.198 Y120.525 E.02756
G1 X117.645 Y121.208 E.02756
G1 X116.949 Y121.745 E.02756
G1 X116.148 Y122.107 E.02756
G1 X115.286 Y122.275 E.02756
G1 X114.407 Y122.239 E.02756
G1 X113.561 Y122.001 E.02756
G1 X112.793 Y121.575 E.02756
G1 X112.143 Y120.983 E.02756
G1 X111.647 Y120.257 E.02756
G1 X111.332 Y119.437 E.02756
G1 X111.215 Y118.566 E.02756
G1 X111.302 Y117.691 E.02756
G1 X111.588 Y116.86 E.02756
G1 X112.059 Y116.117 E.02756
G1 X112.583 Y115.605 E.02298
M204 P1000
G1 X112.951 Y115.775 F9000
M204 P800
;TYPE:External perimeter
G1 F1200
G1 X113.629 Y115.377 E.02463
G1 X114.386 Y115.145 E.02482
G1 X115.176 Y115.094 E.02483
G1 X115.957 Y115.227 E.02483
G1 X116.686 Y115.536 E.02483
G1 X117.324 Y116.004 E.02483
G1 X117.837 Y116.608 E.02483
G1 X118.197 Y117.313 E.02483
G1 X118.385 Y118.082 E.02483
G1 X118.39 Y118.874 E.02483
G1 X118.212 Y119.646 E.02483
G1 X117.861 Y120.356 E.02483
G1 X117.356 Y120.965 E.02483
G1 X116.724 Y121.442 E.02483
G1 X115.999 Y121.761 E.02483
G1 X115.22 Y121.903 E.02483
G1 X114.429 Y121.862 E.02483
G1 X113.669 Y121.64 E.02483
G1 X112.981 Y121.248 E.02483
G1 X112.402 Y120.709 E.02483
G1 X111.962 Y120.05 E.02483
G1 X111.687 Y119.308 E.02483
G1 X111.59 Y118.522 E.02483
G1 X111.677 Y117.735 E.02483
G1 X111.943 Y116.989 E.02483
G1 X112.374 Y116.325 E.02483
G1 X112.907 Y115.815 E.02314
M204 P1000
G1 X112.903 Y115.378 F9000
G1 E-2.24 F4200
;WIPE_START
G1 F7200
G1 X113.629 Y115.377 E-.46788
G1 X114.386 Y115.145 E-.43873
G1 X114.396 Y115.145 E-.0054
;WIPE_END
G1 E-.048 F4200
G1 Z.4 F720
G1 X61.937 Y116.309 F9000
G1 Z.2 F720
G1 E3.2 F2400
M204 P800
;TYPE:Perimeter
G1 F1200
G1 X62.059 Y116.117 E.0071
G1 X62.687 Y115.503 E.02756
G1 X63.441 Y115.051 E.02756
G1 X64.278 Y114.784 E.02756
G1 X65.155 Y114.718 E.02756
G1 X66.023 Y114.855 E.02756
G1 X66.835 Y115.189 E.02756
G1 X67.55 Y115.702 E.02756
G1 X68.126 Y116.365 E.02756
G1 X68.534 Y117.144 E.02756
G1 X68.752 Y117.995 E.02756
G1 X68.767 Y118.874 E.02756
G1 X68.579 Y119.733 E.02756
G1 X68.198 Y120.525 E.02756
G1 X67.645 Y121.208 E.02756
G1 X66.949 Y121.745 E.02756
G1 X66.148 Y122.107 E.02756
G1 X65.286 Y122.275 E.02756
G1 X64.407 Y122.239 E.02756
G1 X63.561 Y122.001 E.02756
G1 X62.793 Y121.575 E.02756
G1 X62.143 Y120.983 E.02756
G1 X61.647 Y120.257 E.02756
G1 X61.332 Y119.437 E.02756
G1 X61.215 Y118.566 E.02756
G1 X61.302 Y117.691 E.02756
G1 X61.588 Y116.86 E.02756
G1 X61.905 Y116.36 E.01857
M204 P1000
G1 E-2.24 F4200
;WIPE_START
G1 F7200
G1 X62.059 Y116.117 E-.15883
G1 X62.687 Y115.503 E-.48705
G1 X63.099 Y115.256 E-.26612
;WIPE_END
G1 E-.048 F4200
G1 Z.4 F720
G1 X66.374 Y121.596 F9000
G1 Z.2 F720
G1 E3.2 F2400
M204 P800
;TYPE:External perimeter
G1 F1200
G1 X65.999 Y121.761 E.01283
G1 X65.22 Y121.903 E.02483
G1 X64.429 Y121.862 E.02483
G1 X63.669 Y121.64 E.02483
G1 X62.981 Y121.248 E.02483
G1 X62.402 Y120.709 E.02483
G1 X61.962 Y120.05 E.02483
G1 X61.687 Y119.308 E.02483
G1 X61.59 Y118.522 E.02483
G1 X61.677 Y117.735 E.02483
G1 X61.943 Y116.989 E.02483
G1 X62.374 Y116.325 E.02483
G1 X62.946 Y115.778 E.02483
G1 X63.629 Y115.377 E.02483
G1 X64.386 Y115.145 E.02483
G1 X65.176 Y115.094 E.02483
G1 X65.957 Y115.227 E.02483
G1 X66.686 Y115.536 E.02483
G1 X67.324 Y116.004 E.02483
G1 X67.837 Y116.608 E.02483
G1 X68.197 Y117.313 E.02483
G1 X68.385 Y118.082 E.02483
G1 X68.39 Y118.874 E.02483
G1 X68.212 Y119.646 E.02483
G1 X67.861 Y120.356 E.02483
G1 X67.356 Y120.965 E.02483
G1 X66.724 Y121.442 E.02483
G1 X66.429 Y121.572 E.01012
M204 P1000
G1 X66.351 Y121.996 F9000
G1 E-2.24 F4200
;WIPE_START
G1 F7200
G1 X65.999 Y121.761 E-.25994
G1 X65.22 Y121.903 E-.4388
G1 X64.836 Y121.883 E-.21326
;WIPE_END
G1 E-.048 F4200
G1 Z.4 F720
G1 X135.067 Y44.571 F9000
G1 Z.2 F720
G1 E3.2 F2400
M204 P800
;TYPE:Solid infill
;WIDTH:0.421498
G1 F1200
G1 X45.638 Y44.571 E2.81514
G1 X45.261 Y44.611 E.01194
G1 X45.04 Y44.702 E.00753
G1 X44.849 Y44.849 E.00757
G1 X44.772 Y44.949 E.00398
G1 X135.228 Y44.949 E2.84747
G1 X135.298 Y45.04 E.00358
M73 P2 R78
G1 X135.39 Y45.262 E.00757
G1 X135.398 Y45.328 E.0021
G1 X44.602 Y45.328 E2.85817
G1 X44.57 Y45.706 E.01196
M73 P2 R77
G1 X135.43 Y45.706 E2.86018
G1 X135.43 Y46.085 E.01192
G1 X44.57 Y46.085 E2.86018
G1 X44.57 Y46.464 E.01192
G1 X135.43 Y46.464 E2.86018
G1 X135.43 Y46.842 E.01192
G1 X44.57 Y46.842 E2.86018
G1 X44.57 Y47.221 E.01192
G1 X135.43 Y47.221 E2.86018
G1 X135.43 Y47.599 E.01192
G1 X44.57 Y47.599 E2.86018
G1 X44.57 Y47.978 E.01192
G1 X135.43 Y47.978 E2.86018
G1 X135.43 Y48.356 E.01192
G1 X44.57 Y48.356 E2.86018
G1 X44.57 Y48.735 E.01192
G1 X135.43 Y48.735 E2.86018
G1 X135.43 Y49.114 E.01192
G1 X44.57 Y49.114 E2.86018
G1 X44.57 Y49.492 E.01192
M73 P3 R77
G1 X135.43 Y49.492 E2.86018
G1 X135.43 Y49.871 E.01192
G1 X44.57 Y49.871 E2.86018
G1 X44.57 Y50.249 E.01192
G1 X135.43 Y50.249 E2.86018
G1 X135.43 Y50.628 E.01192
M73 P3 R76
G1 X44.57 Y50.628 E2.86018
G1 X44.57 Y51.007 E.01192
G1 X135.43 Y51.007 E2.86018
G1 X135.43 Y51.385 E.01192
G1 X44.57 Y51.385 E2.86018
G1 X44.57 Y51.764 E.01192
G1 X135.43 Y51.764 E2.86018
G1 X135.43 Y52.142 E.01192
G1 X44.57 Y52.142 E2.86018
G1 X44.57 Y52.521 E.01192
G1 X135.43 Y52.521 E2.86018
G1 X135.43 Y52.899 E.01192
G1 X44.57 Y52.899 E2.86018
G1 X44.57 Y53.278 E.01192
M73 P4 R76
G1 X135.43 Y53.278 E2.86018
G1 X135.43 Y53.657 E.01192
G1 X44.57 Y53.657 E2.86018
G1 X44.57 Y54.035 E.01192
G1 X135.43 Y54.035 E2.86018
G1 X135.43 Y54.414 E.01192
G1 X44.57 Y54.414 E2.86018
G1 X44.57 Y54.792 E.01192
G1 X135.43 Y54.792 E2.86018
G1 X135.43 Y55.171 E.01192
G1 X44.57 Y55.171 E2.86018
G1 X44.57 Y55.549 E.01192
M73 P4 R75
G1 X135.43 Y55.549 E2.86018
G1 X135.43 Y55.928 E.01192
G1 X44.57 Y55.928 E2.86018
G1 X44.57 Y56.307 E.01192
G1 X135.43 Y56.307 E2.86018
G1 X135.43 Y56.685 E.01192
G1 X44.57 Y56.685 E2.86018
G1 X44.57 Y57.064 E.01192
G1 X135.43 Y57.064 E2.86018
G1 X135.43 Y57.442 E.01192
M73 P5 R75
G1 X44.57 Y57.442 E2.86018
G1 X44.57 Y57.821 E.01192
G1 X63.283 Y57.821 E.58908
G1 X62.628 Y58.199 E.02382
G1 X44.57 Y58.199 E.56845
G1 X44.57 Y58.578 E.01192
G1 X62.199 Y58.578 E.55494
G1 X61.945 Y58.815 E.01093
G1 X61.826 Y58.957 E.00583
G1 X44.57 Y58.957 E.5432
G1 X44.57 Y59.335 E.01192
G1 X61.577 Y59.335 E.53536
G1 X61.347 Y59.714 E.01394
G1 X44.57 Y59.714 E.52812
G1 X44.57 Y60.092 E.01192
G1 X61.207 Y60.092 E.52371
G1 X61.073 Y60.471 E.01263
G1 X44.57 Y60.471 E.51951
G1 X44.57 Y60.85 E.01192
G1 X61.002 Y60.85 E.51726
G1 X60.959 Y61.228 E.01199
G1 X44.57 Y61.228 E.51591
G1 X44.57 Y61.607 E.01192
G1 X60.94 Y61.607 E.51532
G1 X60.983 Y61.985 E.01199
